src/assets/svg/ic_site.svg

<svg xmlns="http://www.w3.org/2000/svg" width="16" height="16">
    <path d="M2 1v15h2v-4h2v4h8V1zm4 9H4V7h2zm0-4H4V3h2zm3 4H7V7h2zm0-4H7V3h2zm3 4h-2V7h2zm0-4h-2V3h2z"/>
</svg>

<svg id="icons" xmlns="http://www.w3.org/2000/svg" width="16" height="16" viewBox="0 0 16 16"><title>site</title><path d="M2,1V16H4V12H6v4h8V1Zm4,9H4V7H6ZM6,6H4V3H6Zm3,4H7V7H9ZM9,6H7V3H9Zm3,4H10V7h2Zm0-4H10V3h2Z"/></svg>
